X:1
T: Jackson's Bottle of Brandy
C:
R:Jig
Q:180
K:G
M:6/8
L:1/16
B2|G4e2 d2B2G2|A2B2G2 d2B2G2|G4e2 d2B2G2|A4A2 B2G2E2|G4e2 d2B2G2|B2A2B2 d2e2f2|g2f2e2 d2B2G2|A2G2A2 B2G2E2|
G4e2 d2B2G2|A2B2G2 d2B2G2|G4e2 d2B2G2|A4A2 B2G2E2|G4e2 d2B2G2|B2A2B2 d2e2f2|g2f2e2 d2B2G2|A2G2A2 B2G2E2|
g2b2g2 f2a2f2|e2g2e2 d2e2f2|g2f2g2 a2g2a2|b2a2b2 a2f2d2|g2b2g2 f2a2f2|e2g2e2 d2e2f2|g2f2e2 d2B2G2|A2G2A2 B2G2E2|
g2b2g2 f2a2f2|e2g2e2 d2e2f2|g2f2g2 a2g2a2|b2a2b2 a2f2d2|g2b2g2 f2a2f2|e2g2e2 d2e2f2|g2f2e2 d2B2G2|A2G2A2 G4||
